packages/sources/icons/src/vitamix/film-fill.svg

<svg width="16" height="16" viewBox="0 0 16 16" xmlns="http://www.w3.org/2000/svg"><path d="M1.33337 2.662C1.33459 2.48692 1.40464 2.31934 1.52838 2.19548C1.65212 2.07161 1.81963 2.0014 1.99471 2H14.0054C14.3707 2 14.6667 2.29667 14.6667 2.662V13.338C14.6655 13.5131 14.5954 13.6807 14.4717 13.8045C14.348 13.9284 14.1805 13.9986 14.0054 14H1.99471C1.81925 13.9998 1.65104 13.93 1.52703 13.8059C1.40303 13.6817 1.33337 13.5135 1.33337 13.338V2.662ZM2.66671 3.33333V4.66667H4.00004V3.33333H2.66671ZM12 3.33333V4.66667H13.3334V3.33333H12ZM2.66671 6V7.33333H4.00004V6H2.66671ZM12 6V7.33333H13.3334V6H12ZM2.66671 8.66667V10H4.00004V8.66667H2.66671ZM12 8.66667V10H13.3334V8.66667H12ZM2.66671 11.3333V12.6667H4.00004V11.3333H2.66671ZM12 11.3333V12.6667H13.3334V11.3333H12Z"/></svg>

<svg width="16" height="16" xmlns="http://www.w3.org/2000/svg"><path d="M1.333 2.662A.667.667 0 0 1 1.995 2h12.01c.366 0 .662.297.662.662v10.676a.667.667 0 0 1-.662.662H1.995a.662.662 0 0 1-.662-.662V2.662Zm1.334.671v1.334H4V3.333H2.667Zm9.333 0v1.334h1.333V3.333H12ZM2.667 6v1.333H4V6H2.667ZM12 6v1.333h1.333V6H12ZM2.667 8.667V10H4V8.667H2.667Zm9.333 0V10h1.333V8.667H12Zm-9.333 2.666v1.334H4v-1.334H2.667Zm9.333 0v1.334h1.333v-1.334H12Z"/></svg>
